assets/logos/icons/pause.svg

<svg height="24" viewBox="0 0 24 24" width="24" xmlns="http://www.w3.org/2000/svg"><path d="m7 8v8h2v-8zm0-2h2c1.1045695 0 2 .8954305 2 2v8c0 1.1045695-.8954305 2-2 2h-2c-1.1045695 0-2-.8954305-2-2v-8c0-1.1045695.8954305-2 2-2zm8 2v8h2v-8zm0-2h2c1.1045695 0 2 .8954305 2 2v8c0 1.1045695-.8954305 2-2 2h-2c-1.1045695 0-2-.8954305-2-2v-8c0-1.1045695.8954305-2 2-2z" fill="#492f5c" fill-rule="evenodd"/></svg>

<svg xmlns="http://www.w3.org/2000/svg" width="24" height="24" viewBox="0 0 24 24">
  <path fill="#492F5C" fill-rule="evenodd" d="M7,8 L7,16 L9,16 L9,8 L7,8 Z M7,6 L9,6 C10.1045695,6 11,6.8954305 11,8 L11,16 C11,17.1045695 10.1045695,18 9,18 L7,18 C5.8954305,18 5,17.1045695 5,16 L5,8 C5,6.8954305 5.8954305,6 7,6 Z M15,8 L15,16 L17,16 L17,8 L15,8 Z M15,6 L17,6 C18.1045695,6 19,6.8954305 19,8 L19,16 C19,17.1045695 18.1045695,18 17,18 L15,18 C13.8954305,18 13,17.1045695 13,16 L13,8 C13,6.8954305 13.8954305,6 15,6 Z"/>
</svg>
